packages/foundations/assets/icons/functional/images/audio & video/fast_backward_10_16.svg

<svg width="16" height="16" viewBox="0 0 16 16" fill="none" xmlns="http://www.w3.org/2000/svg">
<g clip-path="url(#clip0_184_234)">
<path fill-rule="evenodd" clip-rule="evenodd" d="M12.554 12.38C12.038 12.38 11.726 11.943 11.726 11.615C11.726 11.24 12.319 10.335 12.319 9.31899C12.319 7.16399 10.679 5.54 8.68098 5.353L9.22698 5.868C9.35198 6.024 9.46098 6.22799 9.46098 6.43C9.46098 6.836 9.08698 7.196 8.66498 7.196C8.45188 7.19837 8.24615 7.11808 8.09098 6.972L6.34898 5.216C6.20694 5.06223 6.1302 4.85928 6.13498 4.65C6.13498 4.447 6.21298 4.275 6.35298 4.13499L8.11898 2.355C8.18932 2.28087 8.27398 2.22182 8.36784 2.18142C8.4617 2.14102 8.5628 2.12012 8.66498 2.12C8.87577 2.12105 9.07762 2.20525 9.22668 2.3543C9.37573 2.50335 9.45993 2.70521 9.46098 2.916C9.46077 3.01822 9.43994 3.11936 9.39973 3.21334C9.35952 3.30733 9.30077 3.39224 9.22698 3.463L8.86798 3.823C10.2369 3.94939 11.5089 4.58357 12.4337 5.60071C13.3585 6.61785 13.8691 7.94429 13.865 9.31899L13.859 9.56899C13.803 10.697 13.38 12.38 12.554 12.38ZM2.94698 13.88H4.49298C4.59461 13.8793 4.6951 13.8586 4.78867 13.8189C4.88223 13.7792 4.96702 13.7214 5.03814 13.6488C5.10925 13.5762 5.16529 13.4903 5.20302 13.3959C5.24076 13.3015 5.25943 13.2006 5.25798 13.099C5.25745 12.8922 5.17514 12.694 5.029 12.5477C4.88287 12.4014 4.68478 12.3188 4.47798 12.318V9.24C4.47928 9.10103 4.44231 8.9644 4.3711 8.84506C4.2999 8.72571 4.19723 8.62827 4.07432 8.56342C3.95142 8.49856 3.81304 8.46878 3.67433 8.47735C3.53563 8.48592 3.40196 8.5325 3.28798 8.612L2.48098 9.15C2.37494 9.21909 2.28779 9.3135 2.22738 9.42472C2.16697 9.53593 2.13522 9.66044 2.13498 9.787C2.13489 9.89218 2.15608 9.99629 2.19726 10.0931C2.23844 10.1899 2.29878 10.2773 2.37463 10.3502C2.45048 10.423 2.54029 10.4798 2.63865 10.5171C2.73701 10.5543 2.84189 10.5713 2.94698 10.567V12.317C2.50998 12.317 2.18198 12.676 2.18198 13.113C2.18198 13.519 2.50998 13.88 2.94698 13.88ZM8.20998 8.39799C9.48998 8.39799 10.365 9.30399 10.365 10.694V11.568C10.365 12.974 9.45898 13.88 8.13198 13.88C6.92898 13.88 6.05498 12.958 6.05498 11.6V10.631C6.05498 9.30399 6.96098 8.39799 8.20998 8.39799ZM8.25498 9.956H8.19498L8.12698 9.959C7.82098 9.979 7.61698 10.091 7.61698 10.616V11.599C7.61698 12.146 7.78798 12.313 8.20998 12.305C8.58498 12.298 8.78798 12.115 8.78798 11.553V10.678C8.78798 10.022 8.47498 9.949 8.19398 9.956H8.25498Z" fill="#1A1C1F"/>
</g>
<defs>
<clipPath id="clip0_184_234">
<rect width="16" height="16" fill="white"/>
</clipPath>
</defs>
</svg>

<svg xmlns="http://www.w3.org/2000/svg" width="16" height="16" fill="none"><g clip-path="url(#a)"><path fill="#1A1C1F" fill-rule="evenodd" d="M12.554 12.38c-.516 0-.828-.437-.828-.765 0-.375.593-1.28.593-2.296 0-2.155-1.64-3.779-3.638-3.966l.546.515c.125.156.234.36.234.562 0 .406-.374.766-.796.766a.82.82 0 0 1-.574-.224L6.349 5.216a.8.8 0 0 1-.214-.566c0-.203.078-.375.218-.515l1.766-1.78a.75.75 0 0 1 .546-.235.8.8 0 0 1 .796.796.76.76 0 0 1-.234.547l-.359.36a5.503 5.503 0 0 1 4.997 5.496l-.006.25c-.056 1.128-.479 2.811-1.305 2.811m-9.607 1.5h1.546a.77.77 0 0 0 .765-.781.783.783 0 0 0-.78-.781V9.24a.757.757 0 0 0-1.19-.628l-.807.538a.76.76 0 0 0-.284.943.78.78 0 0 0 .75.474v1.75c-.437 0-.765.359-.765.796 0 .406.328.767.765.767M8.21 8.398c1.28 0 2.155.906 2.155 2.296v.874c0 1.406-.906 2.312-2.233 2.312-1.203 0-2.077-.922-2.077-2.28v-.969c0-1.327.906-2.233 2.155-2.233m.045 1.558h-.06l-.068.003c-.306.02-.51.132-.51.657v.983c0 .547.171.714.593.706.375-.007.578-.19.578-.752v-.875c0-.656-.313-.729-.594-.722z" clip-rule="evenodd"/></g><defs><clipPath id="a"><path fill="#fff" d="M0 0h16v16H0z"/></clipPath></defs></svg>
